src/assets/icons/cars/doors4_car.svg

<svg width="48" height="48" viewBox="0 0 48 48" fill="none" xmlns="http://www.w3.org/2000/svg">
<g id="Icons / Vertical Cars / Car doors 4">
<path id="Combined Shape" fill-rule="evenodd" clip-rule="evenodd" d="M28.2675 20H18.2675C17.7155 20 17.2675 20.448 17.2675 21C17.2675 21.552 17.7155 22 18.2675 22H28.2675C28.8195 22 29.2675 21.552 29.2675 21C29.2675 20.448 28.8195 20 28.2675 20ZM28.2675 33H18.2675C17.7155 33 17.2675 33.448 17.2675 34C17.2675 34.552 17.7155 35 18.2675 35H28.2675C28.8195 35 29.2675 34.552 29.2675 34C29.2675 33.448 28.8195 33 28.2675 33ZM31.2675 36.0208C31.2675 37.1118 30.3105 37.9998 29.2195 37.9998H17.3155C16.2245 37.9998 15.2675 37.1118 15.2675 36.0208V11.9788C15.2675 10.9038 16.1985 10.0308 17.2675 10.0048V10.9998C17.2675 11.5518 17.7155 11.9998 18.2675 11.9998C18.8195 11.9998 19.2675 11.5518 19.2675 10.9998V9.99982H27.2675V10.9998C27.2675 11.5518 27.7155 11.9998 28.2675 11.9998C28.8195 11.9998 29.2675 11.5518 29.2675 10.9998V10.0048C30.3365 10.0308 31.2675 10.9038 31.2675 11.9788V36.0208ZM33.2675 27.5258V20.4118L35.8225 23.1068C36.0185 23.3108 36.2635 23.4138 36.5255 23.4138C36.7755 23.4138 37.0165 23.3208 37.2105 23.1348C37.6085 22.7518 37.6515 22.1188 37.2685 21.7208L33.2675 17.5258V11.9788C33.2675 9.78182 31.4175 7.99982 29.2195 7.99982H17.3155C15.1185 7.99982 13.2675 9.78182 13.2675 11.9788V17.5258L9.27049 21.7208C8.88849 22.1188 8.91749 22.7518 9.31649 23.1348C9.51049 23.3208 9.77649 23.4138 10.0265 23.4138C10.2885 23.4138 10.5165 23.3108 10.7125 23.1068L13.2675 20.4118V27.5258L9.27049 31.7208C8.88849 32.1188 8.91749 32.7518 9.31649 33.1348C9.51049 33.3208 9.76849 33.4138 10.0175 33.4138C10.2805 33.4138 10.5125 33.3108 10.7085 33.1068L13.2675 30.4118V36.0208C13.2675 38.2188 15.1185 39.9998 17.3155 39.9998H29.2195C31.4175 39.9998 33.2675 38.2188 33.2675 36.0208V30.4118L35.8225 33.1068C36.0185 33.3108 36.2635 33.4138 36.5255 33.4138C36.7755 33.4138 37.0165 33.3208 37.2105 33.1348C37.6085 32.7518 37.6515 32.1188 37.2685 31.7208L33.2675 27.5258Z" fill="#253238"/>
</g>
</svg>

<svg width="48" height="48" viewBox="0 0 48 48" fill="none" xmlns="http://www.w3.org/2000/svg"><path fill-rule="evenodd" clip-rule="evenodd" d="M28.267 20h-10a1 1 0 000 2h10a1 1 0 000-2zm0 13h-10a1 1 0 000 2h10a1 1 0 000-2zm3 3.02c0 1.092-.956 1.98-2.047 1.98H17.316c-1.091 0-2.048-.888-2.048-1.98V11.98c0-1.075.93-1.948 2-1.974V11a1 1 0 002 0v-1h8v1a1 1 0 002 0v-.995c1.069.026 2 .899 2 1.974V36.02zm2-8.494v-7.114l2.555 2.695a.959.959 0 00.703.307c.25 0 .492-.093.686-.28.398-.382.44-1.015.058-1.413l-4.002-4.195v-5.547c0-2.197-1.85-3.98-4.048-3.98H17.316c-2.197 0-4.048 1.783-4.048 3.98v5.547L9.27 21.72a1 1 0 00.046 1.414c.194.186.46.279.71.279.263 0 .49-.103.687-.307l2.555-2.695v7.114L9.27 31.72a1 1 0 00.046 1.414c.194.186.452.279.701.279a.932.932 0 00.692-.307l2.559-2.695v5.609c0 2.198 1.85 3.979 4.047 3.979H29.22c2.198 0 4.048-1.781 4.048-3.98v-5.608l2.555 2.695a.959.959 0 00.703.307c.25 0 .492-.093.686-.28.398-.382.44-1.015.058-1.413l-4.002-4.195z" fill="#253238"/></svg>
